X:1125
M:C|
L:1/8
Q:1/4=80 "Plaintive"
K:E Minor
   B2e2 gfe^d |e4 ^d2c2|B3 c B2G2 |A2B2 d2:|
E2|EFGA B^c^de|F4  A2F2|E4   GFE^D|E2F2 G3F|
   EFGA B^c^dB|e4  egfe|B2AG d3  F|E2E2 E2:|

